X: 41876
T: Vladimir's Steamboat
R: reel
M: 4/4
K: Amixolydian
Acde dcAc|dedc AGEA-|Acde dc A2|GFGB AGE2|
Acde dcAc|dega gedg|edce dcA2|GFGB A4:|
a2za -aza2-|a2ga bagf|efed cdef|gea^g e4|
a2za -aza2-|a2ga bagf|efed cdef|ecdc A4|
a2za -aza2-|a2ga bagf|efed cdef|gea^g e4|
abag egab|aega bagf|efed cdef|ecdc A4||

